packages/assets/static/images/icons/bold/person-simple-circle--bold.svg

<svg width="24" height="24" viewBox="0 0 24 24" xmlns="http://www.w3.org/2000/svg">
<path d="M11.9999 1.87549C9.99741 1.87549 8.03984 2.46931 6.37479 3.58186C4.70975 4.69441 3.412 6.27572 2.64566 8.12582C1.87933 9.97592 1.67882 12.0117 2.06949 13.9758C2.46017 15.9398 3.42448 17.7439 4.84049 19.1599C6.25649 20.576 8.0606 21.5403 10.0247 21.9309C11.9887 22.3216 14.0245 22.1211 15.8746 21.3548C17.7247 20.5884 19.306 19.2907 20.4186 17.6256C21.5311 15.9606 22.1249 14.003 22.1249 12.0005C22.122 9.31609 21.0543 6.74248 19.1561 4.84432C17.258 2.94616 14.6843 1.87847 11.9999 1.87549ZM11.9999 19.8755C10.4424 19.8755 8.91987 19.4136 7.62483 18.5483C6.32979 17.683 5.32043 16.4531 4.72439 15.0141C4.12835 13.5752 3.9724 11.9918 4.27626 10.4642C4.58012 8.93655 5.33014 7.53336 6.43148 6.43202C7.53282 5.33068 8.93601 4.58066 10.4636 4.2768C11.9912 3.97295 13.5746 4.1289 15.0136 4.72494C16.4525 5.32098 17.6825 6.33034 18.5478 7.62537C19.4131 8.92041 19.8749 10.443 19.8749 12.0005C19.8727 14.0884 19.0423 16.0901 17.5659 17.5665C16.0896 19.0429 14.0878 19.8733 11.9999 19.8755ZM10.1249 7.50049C10.1249 7.12965 10.2349 6.76714 10.4409 6.45879C10.647 6.15045 10.9398 5.91013 11.2824 5.76821C11.625 5.6263 12.002 5.58917 12.3657 5.66152C12.7295 5.73386 13.0635 5.91244 13.3258 6.17466C13.588 6.43689 13.7666 6.77098 13.8389 7.13469C13.9113 7.49841 13.8741 7.87541 13.7322 8.21802C13.5903 8.56063 13.35 8.85347 13.0416 9.05949C12.7333 9.26552 12.3708 9.37549 11.9999 9.37549C11.5027 9.37549 11.0257 9.17794 10.6741 8.82631C10.3225 8.47468 10.1249 7.99777 10.1249 7.50049ZM17.2499 11.2505C17.2499 11.5489 17.1314 11.835 16.9204 12.046C16.7095 12.257 16.4233 12.3755 16.1249 12.3755H13.1249V12.4233L15.5737 16.2717C15.7337 16.5234 15.7872 16.8283 15.7226 17.1194C15.6579 17.4105 15.4802 17.664 15.2287 17.8242C15.0487 17.94 14.839 18.0012 14.6249 18.0005C14.4356 18.0006 14.2492 17.9528 14.0832 17.8617C13.9172 17.7706 13.7769 17.639 13.6753 17.4792L11.9999 14.8458L10.3237 17.4792C10.1596 17.7219 9.90731 17.891 9.6205 17.9505C9.33368 18.0101 9.03494 17.9554 8.7878 17.7981C8.54066 17.6409 8.36462 17.3934 8.29709 17.1084C8.22956 16.8233 8.27588 16.5232 8.42619 16.2717L10.8749 12.4233V12.3755H7.87494C7.57657 12.3755 7.29043 12.257 7.07945 12.046C6.86847 11.835 6.74994 11.5489 6.74994 11.2505C6.74994 10.9521 6.86847 10.666 7.07945 10.455C7.29043 10.244 7.57657 10.1255 7.87494 10.1255H16.1249C16.4233 10.1255 16.7095 10.244 16.9204 10.455C17.1314 10.666 17.2499 10.9521 17.2499 11.2505Z"/>
</svg>

<svg viewBox="0 0 24 24" xmlns="http://www.w3.org/2000/svg" aria-hidden="true" fill="currentColor"><path d="M12 1.875A10.125 10.125 0 1 0 22.125 12 10.136 10.136 0 0 0 12 1.876m0 18a7.875 7.875 0 1 1 7.875-7.874A7.883 7.883 0 0 1 12 19.875M10.125 7.5a1.875 1.875 0 1 1 3.75 0 1.875 1.875 0 0 1-3.75 0m7.125 3.75a1.125 1.125 0 0 1-1.125 1.126h-3v.047l2.449 3.849a1.126 1.126 0 0 1-1.899 1.207L12 14.846l-1.676 2.633a1.125 1.125 0 0 1-1.898-1.207l2.449-3.849v-.047h-3a1.125 1.125 0 1 1 0-2.25h8.25a1.125 1.125 0 0 1 1.125 1.125"/></svg>
